X: 58
T: The Haunted Tower
R: reel
M: 2/4
L: 1/8
Z: 2012 John Chambers <jc:trillian.mit.edu>
B: Saml. Ann & Peter Thompson "Twenty Four Country Dances for the Year 1791", London 1791, p.29 #2
K: D
% - - - - - - - - - - - - - - - - - - - - - - - - -
A |\
dfaf | geee | ff/e/ df | (f2e)A |\
dfaf | {a}gf/g/ e>g | ff/g/ ee/f/ | d2d H:|
A |\
Adcd | (cB)AA | Bg-gB | (B2A)A |\
Adcd | cBAf | gefd | a2-a "D.C."y|]
% - - - - - - - - Dance description - - - - - - - -
%%begintext align
%% 1st Cu: Allemande .|.
%% 2d Cu: do the same :|.
%% Promenade 3 Cu: all round .|:
%% the 1st & 2d Cu: Poussett :|:
%%endtext

%%sep 1 1 500
%%sep 1 1 500
